X: 25308
T: Manali Beetle, The
R: reel
M: 4/4
K: Adorian
|:AeG/G/e gede|agef gedB|GB~B2 gd~d2|eded ed~d2|
AeG/G/e gede|agef gedB|G/G/GBd efgf|eaag a4:|
|:A/A/AeA gAfd|eAfB gedB|GB~B2 gd~d2|eded ed~d2|
A/A/AeA gAfd|eAfB gedB|G/G/GBd efgf|eaag a4:|
|:edef gfgg|agef gedB|GB~B2 gB~B2|efge dB~B2|
edef gfgg|agef gedB|G/G/GBd efgf|eaag a4:|
geef gedA|eAfB gedB|GB~B2 gB~B2|efge dB~B2|
geef gedA|eAfB gedB|G/G/GBd efgf|eaag a4|
geef gedA|eAfB gedB|GB~B2 gB~B2|efge dB~B2|
A/A/AeA gAfd|eAfB gedB|G/G/GBd efgf|eaag a4||

